;FLAVOR:UltiGCode
;TIME:11484
;MATERIAL:51063
;MATERIAL2:0
;NOZZLE_DIAMETER:0.8
;Generated with Cura_SteamEngine 3.4.1
M82 ;absolute extrusion mode

G92 E0
G10
;LAYER_COUNT:520
;LAYER:0
M107
G0 F5472 X72.308 Y81.542 Z0.53
;TYPE:SKIRT
G11
G1 F2280 X72.924 Y81.027 E0.29788
G1 X73.587 Y80.576 E0.59537
G1 X74.292 Y80.193 E0.89303
G1 X75.032 Y79.882 E1.19083
G1 X75.799 Y79.647 E1.48845
G1 X76.585 Y79.489 E1.78588
G1 X77.383 Y79.41 E2.08339
G1 X78.186 Y79.41 E2.3813
G1 X78.369 Y79.429 E2.44956
G1 X79.01 Y79.192 E2.70311
G1 X79.786 Y78.99 E3.0006
G1 X80.579 Y78.866 E3.29837
G1 X81.38 Y78.822 E3.59599
G1 X82.181 Y78.858 E3.89346
G1 X82.653 Y78.926 E4.07038
G1 X83.159 Y78.86 E4.2597
G1 X89.238 Y78.436 E6.52049
G1 X90.04 Y78.42 E6.81809
G1 X90.84 Y78.484 E7.11584
G1 X91.629 Y78.627 E7.41333
G1 X91.926 Y78.712 E7.52794
G1 X92.639 Y78.712 E7.79246
G1 X93.229 Y78.619 E8.01405
G1 X94.103 Y78.573 E8.33876
G1 X96.765 Y78.579 E9.32636
G1 X97.566 Y78.621 E9.62394
G1 X98.359 Y78.742 E9.92155
G1 X99.136 Y78.942 E10.21921
G1 X99.89 Y79.218 E10.5171
G1 X100.612 Y79.567 E10.81461
G1 X101.295 Y79.987 E11.11208
G1 X101.934 Y80.473 E11.40993
G1 X102.265 Y80.781 E11.57767
G1 X102.387 Y80.725 E11.62747
G1 X103.459 Y80.296 E12.05585
G1 X104.218 Y80.036 E12.3535
G1 X104.65 Y79.924 E12.51907
G1 X106.006 Y79.613 E13.03521
G1 X106.796 Y79.473 E13.33286
G1 X107.332 Y79.423 E13.53258
G1 X111.026 Y79.205 E14.90544
G1 X111.974 Y79.205 E15.25715
G1 X115.668 Y79.423 E16.63001
G1 X116.466 Y79.51 E16.92782
G1 X117 Y79.614 E17.12966
G1 X118.355 Y79.926 E17.64552
G1 X119.127 Y80.145 E17.94323
G1 X119.531 Y80.294 E18.10298
G1 X120.604 Y80.722 E18.53157
G1 X120.735 Y80.782 E18.58502
G1 X121.079 Y80.462 E18.75933
G1 X121.718 Y79.977 E19.05695
G1 X122.403 Y79.559 E19.35466
G1 X123.125 Y79.21 E19.65218
G1 X123.879 Y78.936 E19.94981
G1 X124.656 Y78.737 E20.24738
G1 X125.45 Y78.617 E20.5453
G1 X126.26 Y78.577 E20.84617
G1 X128.338 Y78.578 E21.61711
G1 X128.45 Y78.548 E21.66013
G1 X129.241 Y78.416 E21.95765
G1 X130.042 Y78.364 E22.25545
G1 X130.599 Y78.375 E22.46213
G1 X139.366 Y78.847 E25.7194
G1 X140.164 Y78.93 E26.01706
G1 X140.214 Y78.94 E26.03597
G1 X140.296 Y78.923 E26.06704
G1 X141.094 Y78.835 E26.36489
G1 X141.896 Y78.827 E26.66245
G1 X142.695 Y78.899 E26.96008
G1 X143.483 Y79.05 E27.25775
G1 X144.252 Y79.279 E27.55543
G1 X144.741 Y79.469 E27.75006
G1 X144.759 Y79.477 E27.75737
G1 X145.481 Y79.457 E28.02533
G1 X146.281 Y79.516 E28.32294
G1 X147.071 Y79.654 E28.62047
G1 X147.844 Y79.869 E28.91814
G1 X148.591 Y80.161 E29.21569
G1 X149.306 Y80.526 E29.51352
G1 X149.98 Y80.96 E29.81093
G1 X150.609 Y81.459 E30.10881
G1 X151.174 Y82.007 E30.40082
G1 X151.735 Y82.607 E30.70557
G1 X152.253 Y83.22 E31.00332
G1 X152.708 Y83.881 E31.30103
G1 X153.094 Y84.584 E31.59857
G1 X153.409 Y85.322 E31.89627
G1 X153.648 Y86.087 E32.19361
G1 X153.828 Y86.993 E32.53631
G1 X153.9 Y87.509 E32.7296
G1 X153.977 Y88.622 E33.14351
G1 X153.976 Y94.456 E35.30792
G1 X153.991 Y94.507 E35.32764
G1 X154.135 Y95.297 E35.62556
G1 X154.203 Y96.346 E36.01556
G1 X154.199 Y111.863 E41.77237
G1 X154.386 Y112.278 E41.94124
G1 X154.642 Y113.038 E42.23877
G1 X154.821 Y113.82 E42.53639
G1 X154.921 Y114.616 E42.83403
G1 X154.944 Y115.278 E43.07978
G1 X154.923 Y118.278 E44.19281
G1 X154.877 Y119.079 E44.49047
G1 X154.752 Y119.872 E44.7883
G1 X154.549 Y120.648 E45.08589
G1 X154.429 Y120.97 E45.21337
G1 X154.429 Y122.506 E45.78323
G1 X154.622 Y122.934 E45.95742
G1 X154.878 Y123.694 E46.25494
G1 X155.057 Y124.476 E46.55257
G1 X155.157 Y125.272 E46.8502
G1 X155.18 Y125.878 E47.07519
G1 X155.18 Y128.878 E48.18819
G1 X155.14 Y129.679 E48.48573
G1 X155.02 Y130.473 E48.78365
G1 X154.823 Y131.25 E49.08104
G1 X154.548 Y132.004 E49.3788
G1 X154.425 Y132.259 E49.48384
G1 X154.415 Y137.117 E51.28616
G1 X154.373 Y137.918 E51.58374
G1 X154.252 Y138.711 E51.88134
G1 X154.053 Y139.488 E52.17892
G1 X153.777 Y140.241 E52.47645
G1 X153.427 Y140.963 E52.77413
G1 X153.008 Y141.647 E53.07172
G1 X152.522 Y142.286 E53.36957
G1 X151.975 Y142.873 E53.66724
G1 X151.373 Y143.403 E53.96481
G1 X150.721 Y143.87 E54.26235
G1 X150.025 Y144.27 E54.56017
G1 X149.294 Y144.598 E54.85742
G1 X148.533 Y144.853 E55.15518
G1 X147.75 Y145.03 E55.453
G1 X146.954 Y145.128 E55.75055
G1 X146.365 Y145.15 E55.96922
G1 X126.251 Y145.15 E63.43151
G1 X125.45 Y145.11 E63.72905
G1 X124.656 Y144.99 E64.02697
G1 X123.879 Y144.793 E64.32436
G1 X123.125 Y144.518 E64.62212
G1 X122.402 Y144.17 E64.91981
G1 X121.889 Y143.857 E65.14276
G1 X121.47 Y144.094 E65.32135
G1 X120.736 Y144.418 E65.61902
G1 X119.974 Y144.667 E65.91643
G1 X119.19 Y144.839 E66.21421
G1 X118.393 Y144.932 E66.5119
G1 X117.858 Y144.95 E66.7105
G1 X105.142 Y144.95 E71.42814
G1 X104.341 Y144.91 E71.72568
G1 X103.547 Y144.79 E72.0236
G1 X102.77 Y144.593 E72.32098
G1 X102.016 Y144.318 E72.61874
G1 X101.293 Y143.97 E72.91643
G1 X101.113 Y143.86 E72.99469
G1 X100.487 Y144.229 E73.26428
G1 X99.758 Y144.566 E73.56224
G1 X99 Y144.829 E73.85991
G1 X98.22 Y145.014 E74.15732
G1 X97.425 Y145.121 E74.45492
G1 X96.748 Y145.15 E74.70632
G1 X76.636 Y145.15 E82.16787
G1 X75.835 Y145.11 E82.46541
G1 X75.041 Y144.99 E82.76333
G1 X74.264 Y144.793 E83.06072
G1 X73.51 Y144.518 E83.35848
G1 X72.787 Y144.17 E83.65616
G1 X72.103 Y143.752 E83.95356
G1 X71.463 Y143.268 E84.25126
G1 X70.875 Y142.722 E84.54895
G1 X70.344 Y142.121 E84.84648
G1 X69.875 Y141.47 E85.14415
G1 X69.474 Y140.775 E85.44184
G1 X69.144 Y140.044 E85.73939
G1 X68.888 Y139.284 E86.03692
G1 X68.709 Y138.502 E86.33454
G1 X68.609 Y137.706 E86.63218
G1 X68.586 Y137.114 E86.85198
G1 X68.578 Y132.417 E88.59457
G1 X68.378 Y131.974 E88.7749
G1 X68.122 Y131.214 E89.07242
G1 X67.943 Y130.432 E89.37005
G1 X67.843 Y129.636 E89.66768
G1 X67.82 Y129.03 E89.89267
G1 X67.82 Y126.03 E91.00567
G1 X67.86 Y125.229 E91.30321
G1 X67.98 Y124.435 E91.60113
G1 X68.177 Y123.658 E91.89852
G1 X68.236 Y123.497 E91.96214
G1 X68.229 Y123.471 E91.97213
G1 X68.103 Y122.678 E92.27002
G1 X68.057 Y121.816 E92.59028
G1 X68.057 Y118.816 E93.70328
G1 X68.097 Y118.015 E94.00082
G1 X68.217 Y117.221 E94.29874
G1 X68.414 Y116.444 E94.59613
G1 X68.689 Y115.69 E94.89388
G1 X68.809 Y115.44 E94.99677
G1 X68.798 Y103.597 E99.39052
G1 X68.837 Y102.795 E99.68841
G1 X68.956 Y102.002 E99.98591
G1 X69.031 Y101.73 E100.09059
G1 X69.024 Y88.676 E104.93362
G1 X69.064 Y87.874 E105.23154
G1 X69.178 Y87.103 E105.52069
G1 X69.317 Y86.403 E105.78546
G1 X69.512 Y85.625 E106.08302
G1 X69.784 Y84.87 E106.38075
G1 X70.13 Y84.146 E106.67845
G1 X70.546 Y83.46 E106.9761
G1 X71.028 Y82.819 E107.27364
G1 X71.745 Y82.063 E107.6602
G1 X72.308 Y81.542 E107.94478
G0 F5472 X72.784 Y82.055
G1 F2280 X73.373 Y81.565 E108.22903
G1 X74.01 Y81.138 E108.51354
G1 X74.688 Y80.78 E108.79799
G1 X75.399 Y80.495 E109.08218
G1 X76.136 Y80.285 E109.36649
G1 X76.891 Y80.153 E109.65084
G1 X77.656 Y80.101 E109.93531
G1 X78.422 Y80.128 E110.21967
G1 X78.48 Y80.136 E110.2414
G1 X78.532 Y80.114 E110.26234
G1 X79.252 Y79.849 E110.54698
G1 X79.995 Y79.662 E110.83123
G1 X80.754 Y79.552 E111.11576
G1 X81.52 Y79.523 E111.40015
G1 X82.285 Y79.573 E111.68457
G1 X82.625 Y79.631 E111.81253
G1 X83.208 Y79.558 E112.03052
G1 X89.287 Y79.134 E114.29131
G1 X90.053 Y79.12 E114.57554
G1 X90.817 Y79.187 E114.86007
G1 X91.569 Y79.333 E115.14427
G1 X91.829 Y79.412 E115.24509
G1 X92.679 Y79.412 E115.56044
G1 X93.371 Y79.308 E115.82005
G1 X94.102 Y79.273 E116.09156
G1 X96.764 Y79.279 E117.07917
G1 X97.529 Y79.321 E117.36341
G1 X98.286 Y79.442 E117.64782
G1 X99.026 Y79.641 E117.93212
G1 X99.741 Y79.917 E118.21646
G1 X100.424 Y80.265 E118.50085
G1 X101.067 Y80.683 E118.78538
G1 X101.663 Y81.165 E119.06975
G1 X102.116 Y81.618 E119.30743
G1 X102.647 Y81.375 E119.52408
G1 X103.719 Y80.946 E119.95245
G1 X104.807 Y80.606 E120.37535
G1 X106.163 Y80.295 E120.89149
G1 X106.918 Y80.163 E121.17584
G1 X107.373 Y80.122 E121.34533
G1 X111.067 Y79.904 E122.71819
G1 X111.933 Y79.904 E123.03948
G1 X115.627 Y80.122 E124.41234
G1 X116.389 Y80.207 E124.69679
G1 X116.843 Y80.296 E124.86843
G1 X118.198 Y80.608 E125.38429
G1 X119.272 Y80.944 E125.80179
G1 X120.345 Y81.372 E126.23037
G1 X120.886 Y81.621 E126.45132
G1 X121.211 Y81.281 E126.62582
G1 X121.795 Y80.785 E126.91008
G1 X122.428 Y80.352 E127.19461
G1 X123.102 Y79.987 E127.47898
G1 X123.811 Y79.695 E127.76345
G1 X124.546 Y79.478 E128.04777
G1 X125.3 Y79.339 E128.33222
G1 X126.26 Y79.277 E128.68912
G1 X128.434 Y79.278 E129.49568
G1 X128.633 Y79.225 E129.57208
G1 X129.39 Y79.104 E129.85649
G1 X130.155 Y79.063 E130.14071
G1 X130.561 Y79.074 E130.2914
G1 X139.328 Y79.546 E133.54866
G1 X140.09 Y79.627 E133.83296
G1 X140.226 Y79.656 E133.88455
G1 X140.543 Y79.594 E134.00438
G1 X141.306 Y79.526 E134.28858
G1 X142.073 Y79.538 E134.57317
G1 X142.834 Y79.629 E134.85751
G1 X143.581 Y79.8 E135.14182
G1 X144.466 Y80.113 E135.49008
G1 X144.644 Y80.189 E135.56189
G1 X144.766 Y80.174 E135.60749
G1 X145.532 Y80.159 E135.89173
G1 X146.296 Y80.224 E136.1762
G1 X147.049 Y80.368 E136.46063
G1 X147.783 Y80.589 E136.74502
G1 X148.49 Y80.886 E137.02952
G1 X149.162 Y81.255 E137.31394
G1 X149.792 Y81.692 E137.5984
G1 X150.373 Y82.192 E137.88278
G1 X150.663 Y82.485 E138.03572
G1 X151.224 Y83.085 E138.34047
G1 X151.717 Y83.672 E138.62486
G1 X152.147 Y84.306 E138.90907
G1 X152.509 Y84.982 E139.19356
G1 X152.798 Y85.692 E139.47796
G1 X153.011 Y86.429 E139.76258
G1 X153.134 Y87.089 E140.01165
G1 X153.206 Y87.605 E140.20494
G1 X153.277 Y88.622 E140.58317
G1 X153.276 Y94.557 E142.78505
G1 X153.317 Y94.7 E142.84024
G1 X153.449 Y95.455 E143.1246
G1 X153.503 Y96.346 E143.45577
G1 X153.499 Y112.015 E149.26896
G1 X153.596 Y112.204 E149.34778
G1 X153.874 Y112.919 E149.63239
G1 X154.076 Y113.658 E149.91662
G1 X154.2 Y114.415 E150.20121
G1 X154.244 Y115.273 E150.51994
G1 X154.223 Y118.273 E151.63297
G1 X154.177 Y119.039 E151.91767
G1 X154.053 Y119.795 E152.20189
G1 X153.85 Y120.534 E152.48622
G1 X153.729 Y120.844 E152.60968
G1 X153.729 Y122.66 E153.28341
G1 X153.832 Y122.86 E153.36687
G1 X154.11 Y123.575 E153.65148
G1 X154.312 Y124.314 E153.93571
G1 X154.436 Y125.071 E154.2203
G1 X154.48 Y125.878 E154.52014
G1 X154.48 Y128.878 E155.63314
G1 X154.44 Y129.644 E155.91772
G1 X154.321 Y130.401 E156.20201
G1 X154.123 Y131.141 E156.48621
G1 X153.849 Y131.857 E156.77063
G1 X153.725 Y132.101 E156.87218
G1 X153.715 Y137.115 E158.73237
G1 X153.673 Y137.881 E159.01699
G1 X153.552 Y138.638 E159.3014
G1 X153.353 Y139.378 E159.58569
G1 X153.078 Y140.093 E159.8699
G1 X152.73 Y140.776 E160.15429
G1 X152.312 Y141.419 E160.43882
G1 X151.83 Y142.015 E160.72319
G1 X151.288 Y142.557 E161.00757
G1 X150.693 Y143.04 E161.29189
G1 X150.051 Y143.459 E161.57631
G1 X149.369 Y143.808 E161.86054
G1 X148.654 Y144.085 E162.14501
G1 X147.914 Y144.285 E162.4294
G1 X147.157 Y144.407 E162.71387
G1 X146.365 Y144.45 E163.00814
G1 X126.251 Y144.45 E170.47043
G1 X125.485 Y144.41 E170.755
G1 X124.728 Y144.291 E171.0393
G1 X123.988 Y144.093 E171.3235
G1 X123.272 Y143.819 E171.60792
G1 X122.588 Y143.472 E171.89247
G1 X121.944 Y143.056 E172.17691
G1 X121.904 Y143.024 E172.19591
G1 X121.501 Y143.283 E172.37364
G1 X120.817 Y143.628 E172.65786
G1 X120.1 Y143.9 E172.94236
G1 X119.359 Y144.095 E173.22663
G1 X118.601 Y144.212 E173.51118
G1 X117.858 Y144.25 E173.78719
G1 X105.142 Y144.25 E178.50483
G1 X104.376 Y144.21 E178.7894
G1 X103.619 Y144.091 E179.0737
G1 X102.879 Y143.893 E179.3579
G1 X102.163 Y143.619 E179.64232
G1 X101.479 Y143.272 E179.92687
G1 X101.095 Y143.024 E180.09646
G1 X100.503 Y143.418 E180.36029
G1 X99.825 Y143.775 E180.64457
G1 X99.113 Y144.059 E180.92896
G1 X98.375 Y144.268 E181.21352
G1 X97.62 Y144.398 E181.49775
G1 X96.748 Y144.45 E181.82184
G1 X76.636 Y144.45 E189.28339
G1 X75.87 Y144.41 E189.56796
G1 X75.113 Y144.291 E189.85226
G1 X74.373 Y144.093 E190.13646
G1 X73.657 Y143.819 E190.42088
G1 X72.973 Y143.472 E190.70543
G1 X72.329 Y143.056 E190.98987
G1 X71.732 Y142.575 E191.2743
G1 X71.189 Y142.035 E191.55841
G1 X70.705 Y141.441 E191.84268
G1 X70.285 Y140.799 E192.1273
G1 X69.934 Y140.118 E192.41154
G1 X69.656 Y139.403 E192.69615
G1 X69.454 Y138.664 E192.98037
G1 X69.33 Y137.907 E193.26496
G1 X69.286 Y137.113 E193.55999
G1 X69.278 Y132.261 E195.36008
G1 X69.168 Y132.048 E195.44902
G1 X68.89 Y131.333 E195.73363
G1 X68.688 Y130.594 E196.01786
G1 X68.564 Y129.837 E196.30245
G1 X68.52 Y129.03 E196.60229
G1 X68.52 Y126.03 E197.71529
G1 X68.56 Y125.264 E197.99986
G1 X68.679 Y124.507 E198.28416
G1 X68.877 Y123.767 E198.56836
G1 X68.969 Y123.527 E198.66372
G1 X68.875 Y123.126 E198.81652
G1 X68.778 Y122.366 E199.10077
G1 X68.757 Y121.816 E199.30496
G1 X68.757 Y118.816 E200.41796
G1 X68.797 Y118.05 E200.70254
G1 X68.916 Y117.293 E200.98683
G1 X69.114 Y116.553 E201.27103
G1 X69.388 Y115.837 E201.55545
G1 X69.509 Y115.598 E201.65484
G1 X69.498 Y103.596 E206.10758
G1 X69.537 Y102.83 E206.39214
G1 X69.656 Y102.073 E206.67643
G1 X69.731 Y101.806 E206.77932
G1 X69.724 Y88.675 E211.65093
G1 X69.764 Y87.91 E211.93513
G1 X69.865 Y87.239 E212.18687
G1 X70.004 Y86.539 E212.45164
G1 X70.192 Y85.796 E212.73598
G1 X70.457 Y85.077 E213.02027
G1 X70.795 Y84.389 E213.30466
G1 X71.203 Y83.74 E213.58907
G1 X71.676 Y83.137 E213.87339
G1 X72.221 Y82.576 E214.16357
G1 X72.784 Y82.055 E214.44816
G0 F5472 X73.259 Y82.569
G1 F2280 X73.821 Y82.104 E214.71877
G1 X74.43 Y81.703 E214.98929
G1 X75.079 Y81.371 E215.25975
G1 X75.761 Y81.113 E215.53027
G1 X76.467 Y80.93 E215.80085
G1 X77.188 Y80.826 E216.07111
G1 X77.917 Y80.801 E216.34173
G1 X78.584 Y80.852 E216.58991
G1 X78.807 Y80.757 E216.67984
G1 X79.492 Y80.508 E216.95024
G1 X80.201 Y80.335 E217.221
G1 X80.924 Y80.241 E217.49149
G1 X81.653 Y80.226 E217.76201
G1 X82.379 Y80.291 E218.03243
G1 X82.598 Y80.335 E218.1153
G1 X83.256 Y80.256 E218.36117
G1 X89.335 Y79.832 E220.62196
G1 X90.064 Y79.821 E220.89245
G1 X90.79 Y79.89 E221.16301
G1 X91.504 Y80.039 E221.43361
G1 X91.729 Y80.112 E221.52137
G1 X92.745 Y80.112 E221.89831
G1 X92.788 Y80.101 E221.91477
G1 X93.51 Y79.998 E222.18535
G1 X94.1 Y79.973 E222.40443
G1 X96.762 Y79.979 E223.39204
G1 X97.49 Y80.021 E223.66257
G1 X98.209 Y80.142 E223.93307
G1 X98.91 Y80.341 E224.20342
G1 X99.586 Y80.615 E224.47404
G1 X100.227 Y80.962 E224.74446
G1 X100.826 Y81.377 E225.01481
G1 X101.377 Y81.855 E225.28543
G1 X101.872 Y82.391 E225.55612
G1 X101.958 Y82.507 E225.60969
G1 X102.347 Y82.28 E225.77678
G1 X102.907 Y82.025 E226.00507
G1 X103.979 Y81.596 E226.43344
G1 X104.963 Y81.288 E226.81597
G1 X106.319 Y80.977 E227.33211
G1 X107.038 Y80.854 E227.60274
G1 X107.414 Y80.821 E227.74277
G1 X111.108 Y80.603 E229.11563
G1 X111.892 Y80.603 E229.40649
G1 X115.586 Y80.821 E230.77935
G1 X116.31 Y80.903 E231.04967
G1 X116.686 Y80.979 E231.19199
G1 X118.041 Y81.291 E231.70785
G1 X119.013 Y81.594 E232.08557
G1 X120.086 Y82.022 E232.51416
G1 X120.747 Y82.329 E232.78455
G1 X121.045 Y82.505 E232.91295
G1 X121.403 Y82.08 E233.11911
G1 X121.93 Y81.576 E233.38964
G1 X122.509 Y81.133 E233.66012
G1 X123.133 Y80.756 E233.93059
G1 X123.794 Y80.449 E234.20098
G1 X124.485 Y80.217 E234.47141
G1 X125.198 Y80.062 E234.74211
G1 X126.259 Y79.977 E235.137
G1 X128.526 Y79.978 E235.97806
G1 X128.814 Y79.902 E236.08856
G1 X129.534 Y79.793 E236.35873
G1 X130.524 Y79.773 E236.72609
G1 X139.291 Y80.245 E239.98336
G1 X140.015 Y80.324 E240.25356
G1 X140.215 Y80.368 E240.32953
G1 X140.782 Y80.269 E240.54307
G1 X141.51 Y80.221 E240.81374
G1 X142.238 Y80.254 E241.08411
G1 X142.959 Y80.366 E241.35481
G1 X143.662 Y80.557 E241.62508
G1 X144.19 Y80.756 E241.83442
G1 X144.544 Y80.907 E241.9772
G1 X144.852 Y80.87 E242.09229
G1 X145.581 Y80.861 E242.36277
